src/assets/vectors/resize.svg

<svg xmlns="http://www.w3.org/2000/svg" version="1" viewBox="0 0 50 50" enable-background="new 0 0 50 50">
    <path style="fill: #fff; text-indent:0;text-align:start;line-height:normal;text-transform:none;block-progression:tb;-inkscape-font-specification:Bitstream Vera Sans" d="M 28.40625 5 A 1.001098 1.001098 0 0 0 28.59375 7 L 41.59375 7 L 7 41.59375 L 7 28.59375 A 1.0001 1.0001 0 0 0 5.78125 27.59375 A 1.0001 1.0001 0 0 0 5 28.59375 L 5 44 L 5 45 L 6 45 L 21.40625 45 A 1.0001 1.0001 0 1 0 21.40625 43 L 8.40625 43 L 43 8.40625 L 43 21.40625 A 1.0001 1.0001 0 1 0 45 21.40625 L 45 6 L 45 5 L 44 5 L 28.59375 5 A 1.0001 1.0001 0 0 0 28.5 5 A 1.001098 1.001098 0 0 0 28.40625 5 z" overflow="visible" enable-background="accumulate" ></path>
</svg>

<svg xmlns="http://www.w3.org/2000/svg" version="1" viewBox="0 0 50 50"><path style="text-indent:0;text-align:start;line-height:normal;text-transform:none;block-progression:tb;-inkscape-font-specification:Bitstream Vera Sans" d="M28.406 5a1.001 1.001 0 0 0 .188 2h13L7 41.594v-13a1 1 0 0 0-1.219-1 1 1 0 0 0-.781 1V45h16.406a1 1 0 1 0 0-2h-13L43 8.406v13a1 1 0 1 0 2 0V5H28.594a1 1 0 0 0-.094 0 1.001 1.001 0 0 0-.094 0z" overflow="visible" fill="#fff"/></svg>
